tenants/vtwonen/icons/channel_tiktok.svg

<svg fill="none" height="24" viewBox="0 0 24 24" width="24" xmlns="http://www.w3.org/2000/svg" xmlns:xlink="http://www.w3.org/1999/xlink"><clipPath id="a"><path d="m0 0h24v24h-24z"/></clipPath><g clip-path="url(#a)"><circle cx="12" cy="12" fill="#000" r="12"/><path d="m16.5999 6.11785c-.6836-.78038-1.0603-1.78257-1.06-2.82h-3.09v12.40005c-.0238.671-.3071 1.3066-.7902 1.7729s-1.1283.727-1.79979.7271c-1.42 0-2.6-1.16-2.6-2.6 0-1.72 1.66-3.01 3.36999-2.48v-3.16005c-3.44999-.46-6.46999 2.22005-6.46999 5.64005 0 3.33 2.76 5.7 5.69 5.7 3.13999 0 5.68999-2.55 5.68999-5.7v-6.29005c1.253.89985 2.7574 1.38265 4.3 1.38005v-3.09005s-1.88.09-3.24-1.48z" fill="#fff"/><path clip-rule="evenodd" d="m16.0413 15.2365c.0167-.062.0776-.3376.0943-.4027.0441-.1726.067-.3331.1339-.4815.0806-.1786.1963-.3315.3088-.4814.0822-.1136.1628-.218.2617-.3119.0228-.0212.0426-.0439.0654-.0666.1157-.0818.2389-.162.3804-.2211.0821-.0348.1643-.0651.2495-.0999.1202-.0515.2358-.1045.3758-.1423.143-.0394.359-.0379.4975.0015.0547.0167.105.0242.1536.0454.2313.0954.3926.2544.5219.4482.0928.1393.1552.3043.216.4754.0152.0439.0167.0923.0274.1408.0076.0318.003.0923-.003.1196-.0077.0318-.0016.0575-.0122.0893-.0122.0469-.0259.1015-.0426.1469-.0259.0802-.0396.1574-.067.2362-.0593.168-.1186.3406-.1871.4996-.1111.2543-.2145.4996-.356.7222-.0289.0469-.0502.0984-.0791.1438-.0183.0288-.0274.0591-.0441.0878-.0305.0576-.0624.1181-.0959.1726-.0243.0379-.0365.0803-.0624.1196-.0547.0863-.1034.1802-.1597.2665-.0654.0969-.1384.1862-.2084.2771-.0715.0878-.1689.162-.2495.2392-.0792.0772-.1598.1544-.2404.2331-.0502.047-.105.0909-.1476.1439-.0167.0136-.0335.0303-.0517.0439-.0472.0469-.1004.0954-.143.1468-.0168.0152-.0335.0303-.0487.0439-.035.0334-.07.0682-.0989.1045-.0213.0197-.0441.0409-.0685.0606-.0532.0696-.1262.1226-.1825.1907-.0198.0197-.0411.0379-.0609.0561-.0259.0318-.0532.0605-.0837.0893-.0121.0106-.0258.0212-.0395.0333-.0487.0651-.0913.1151-.1583.162-.0228.0242-.0988.106-.1217.1287-.0608.0727-.0563.0802-.1141.1332-.0654.0636-.1247.1333-.1901.1953-.0183.0182-.0594.0621-.0837.0591-.0396-.0258-.067-.0666-.102-.0999-.0623-.0636-.146-.1106-.2464-.1908-.0365-.0333-.0685-.0651-.1035-.0954-.0897-.112-.2175-.1953-.3073-.3089-.0274-.0363-.07-.062-.1004-.0999-.035-.0318-.07-.0636-.1035-.0954-.0395-.0499-.0912-.0954-.1354-.1393-.0243-.0212-.0304-.0302-.0532-.0499-.0137-.0182-.0304-.0424-.0426-.0576-.0259-.0378-.067-.0681-.0959-.1059-.0943-.1181-.2008-.2241-.2951-.3422-.0167-.0212-.0441-.0394-.0624-.0606-.073-.0953-.1613-.1801-.2312-.277-.0655-.0894-.1233-.1847-.1857-.2771-.0136-.0242-.0182-.0484-.0349-.0727-.032-.0499-.0639-.106-.0898-.1605-.0715-.1574-.1385-.3149-.2115-.4723-.0989-.215-.2038-.4209-.2769-.6632-.0243-.0832-.038-.2225-.0289-.3164.0046-.0469-.003-.0954.0076-.1363 0-.0212 0-.0408.0015-.062.0122-.0606.0229-.1227.0335-.1848.0502-.171.1004-.3315.1704-.4829.0715-.1545.1719-.2907.2739-.4194.0274-.0394.0578-.0772.0912-.1105.1461-.1408.2891-.2393.5219-.2998.0639-.0182.1749-.0364.2556-.0182.0441.0091.0867.0152.1323.0242.1583.05.2921.1151.4139.1984.213.1423.3666.3346.5066.5481.0669.0999.1415.2043.1932.3179.0578.1196.1019.2483.1476.38.035.0939.0426.1938.07.2953" fill="#e40047" fill-rule="evenodd"/></g></svg>

<svg width="24" height="24" viewBox="0 0 24 24" fill="none" xmlns="http://www.w3.org/2000/svg">
<g clip-path="url(#clip0_2383_27679)">
<circle cx="12" cy="12" r="12" fill="black"/>
<path d="M16.5999 6.11785C15.9163 5.33747 15.5396 4.33528 15.5399 3.29785H12.4499V15.6979C12.4261 16.3689 12.1428 17.0045 11.6597 17.4708C11.1766 17.9371 10.5314 18.1978 9.85991 18.1979C8.43991 18.1979 7.25991 17.0379 7.25991 15.5979C7.25991 13.8779 8.91991 12.5879 10.6299 13.1179V9.95785C7.17991 9.49785 4.15991 12.1779 4.15991 15.5979C4.15991 18.9279 6.91991 21.2979 9.84991 21.2979C12.9899 21.2979 15.5399 18.7479 15.5399 15.5979V9.30785C16.7929 10.2077 18.2973 10.6905 19.8399 10.6879V7.59785C19.8399 7.59785 17.9599 7.68785 16.5999 6.11785Z" fill="white"/>
<path fill-rule="evenodd" clip-rule="evenodd" d="M16.0413 15.2365C16.058 15.1745 16.1189 14.8989 16.1356 14.8338C16.1797 14.6612 16.2026 14.5007 16.2695 14.3523C16.3501 14.1737 16.4658 14.0208 16.5783 13.8709C16.6605 13.7573 16.7411 13.6529 16.84 13.559C16.8628 13.5378 16.8826 13.5151 16.9054 13.4924C17.0211 13.4106 17.1443 13.3304 17.2858 13.2713C17.3679 13.2365 17.4501 13.2062 17.5353 13.1714C17.6555 13.1199 17.7711 13.0669 17.9111 13.0291C18.0541 12.9897 18.2701 12.9912 18.4086 13.0306C18.4633 13.0473 18.5136 13.0548 18.5622 13.076C18.7935 13.1714 18.9548 13.3304 19.0841 13.5242C19.1769 13.6635 19.2393 13.8285 19.3001 13.9996C19.3153 14.0435 19.3168 14.0919 19.3275 14.1404C19.3351 14.1722 19.3305 14.2327 19.3245 14.26C19.3168 14.2918 19.3229 14.3175 19.3123 14.3493C19.3001 14.3962 19.2864 14.4508 19.2697 14.4962C19.2438 14.5764 19.2301 14.6536 19.2027 14.7324C19.1434 14.9004 19.0841 15.073 19.0156 15.232C18.9045 15.4863 18.8011 15.7316 18.6596 15.9542C18.6307 16.0011 18.6094 16.0526 18.5805 16.098C18.5622 16.1268 18.5531 16.1571 18.5364 16.1858C18.5059 16.2434 18.474 16.3039 18.4405 16.3584C18.4162 16.3963 18.404 16.4387 18.3781 16.478C18.3234 16.5643 18.2747 16.6582 18.2184 16.7445C18.153 16.8414 18.08 16.9307 18.01 17.0216C17.9385 17.1094 17.8411 17.1836 17.7605 17.2608C17.6813 17.338 17.6007 17.4152 17.5201 17.4939C17.4699 17.5409 17.4151 17.5848 17.3725 17.6378C17.3558 17.6514 17.339 17.6681 17.3208 17.6817C17.2736 17.7286 17.2204 17.7771 17.1778 17.8285C17.161 17.8437 17.1443 17.8588 17.1291 17.8724C17.0941 17.9058 17.0591 17.9406 17.0302 17.9769C17.0089 17.9966 16.9861 18.0178 16.9617 18.0375C16.9085 18.1071 16.8355 18.1601 16.7792 18.2282C16.7594 18.2479 16.7381 18.2661 16.7183 18.2843C16.6924 18.3161 16.6651 18.3448 16.6346 18.3736C16.6225 18.3842 16.6088 18.3948 16.5951 18.4069C16.5464 18.472 16.5038 18.522 16.4368 18.5689C16.414 18.5931 16.338 18.6749 16.3151 18.6976C16.2543 18.7703 16.2588 18.7778 16.201 18.8308C16.1356 18.8944 16.0763 18.9641 16.0109 19.0261C15.9926 19.0443 15.9515 19.0882 15.9272 19.0852C15.8876 19.0594 15.8602 19.0186 15.8252 18.9853C15.7629 18.9217 15.6792 18.8747 15.5788 18.7945C15.5423 18.7612 15.5103 18.7294 15.4753 18.6991C15.3856 18.5871 15.2578 18.5038 15.168 18.3902C15.1406 18.3539 15.098 18.3282 15.0676 18.2903C15.0326 18.2585 14.9976 18.2267 14.9641 18.1949C14.9246 18.145 14.8729 18.0995 14.8287 18.0556C14.8044 18.0344 14.7983 18.0254 14.7755 18.0057C14.7618 17.9875 14.7451 17.9633 14.7329 17.9481C14.707 17.9103 14.6659 17.88 14.637 17.8422C14.5427 17.7241 14.4362 17.6181 14.3419 17.5C14.3252 17.4788 14.2978 17.4606 14.2795 17.4394C14.2065 17.3441 14.1182 17.2593 14.0483 17.1624C13.9828 17.073 13.925 16.9777 13.8626 16.8853C13.849 16.8611 13.8444 16.8369 13.8277 16.8126C13.7957 16.7627 13.7638 16.7066 13.7379 16.6521C13.6664 16.4947 13.5994 16.3372 13.5264 16.1798C13.4275 15.9648 13.3226 15.7589 13.2495 15.5166C13.2252 15.4334 13.2115 15.2941 13.2206 15.2002C13.2252 15.1533 13.2176 15.1048 13.2282 15.0639C13.2282 15.0427 13.2282 15.0231 13.2297 15.0019C13.2419 14.9413 13.2526 14.8792 13.2632 14.8171C13.3134 14.6461 13.3636 14.4856 13.4336 14.3342C13.5051 14.1797 13.6055 14.0435 13.7075 13.9148C13.7349 13.8754 13.7653 13.8376 13.7987 13.8043C13.9448 13.6635 14.0878 13.565 14.3206 13.5045C14.3845 13.4863 14.4955 13.4681 14.5762 13.4863C14.6203 13.4954 14.6629 13.5015 14.7085 13.5105C14.8668 13.5605 15.0006 13.6256 15.1224 13.7089C15.3354 13.8512 15.489 14.0435 15.629 14.257C15.6959 14.3569 15.7705 14.4613 15.8222 14.5749C15.88 14.6945 15.9241 14.8232 15.9698 14.9549C16.0048 15.0488 16.0124 15.1487 16.0398 15.2502" fill="#E40047"/>
</g>
<defs>
<clipPath id="clip0_2383_27679">
<rect width="24" height="24" fill="white"/>
</clipPath>
</defs>
</svg>
